!!!!SEGMENT: pl-wru--50044-muz--001-015_buchner-philipp-friedrich--plectrum-musicum-sonata-xv.krn
!!!cenid: 16xx:1816
!!!COM: Buchner, Philipp Friedrich
!!!COM-rismID: pe30013776
!!!CDT:
!!!CNT:
!!!GTL: Plectrum musicum
!!!OTL: Sonata XV
!!!OMV: 015
!!!PDT: 1662
!!!AGN:
!!!SMS-siglum: PL-WRu
!!!SMS-shelfmark: 50044 Muz.
!!!SMS-shelfwork: 001-015 G
!!!SMS-variant:
!!!SMS-altvar:
!!!NIFC-rismSourceID: 990007465
!!!NIFC-rismChildID: 990007465
!!!NIFC-islandoraID: none
!!!URL-pdf-islandora:
!!!URL-scan: https://www.bibliotekacyfrowa.pl/dlibra/doccontent?id=116 @EN{Scan on Digital Library of University of Wroclaw} @PL{Skany w portalu Biblioteka Cyfrowa Uniwersytetu Wrocławskiego}
!!!IIIF:
!!!ONB-nifc: UWAGA: Violino I: s. 14-15, Violino II: s. 28, Fagotto: s. 58-59, Bassus: s. 74, Bassus continuus: s. 89
!!!AIN: 1 fagot 2 violn
!!!key: a
**kern	**fba	**kern	**fba	**kern	**kern	**kern
*part5	*part5	*part4	*part4	*part3	*part2	*part1
*staff5	*	*staff4	*	*staff3	*staff2	*staff1
*I"BASSVS CONTINUUS.	*	*I"BASSUS	*	*I"VIOLINO II.	*I"VIOLINO I.	*I"FAGOTTO
*I'bc	*	*I'b	*	*I'vl 2	*I'vl 1	*I'fag
*	*	*	*	*Ivioln	*Ivioln	*Ifagot
*ICklav	*	*ICstr	*	*ICstr	*ICstr	*ICww
*IGcont	*	*IGcont	*	*	*	*
*clefF4	*	*clefF4	*	*clefG2	*clefG2	*clefF4
*k[]	*	*k[]	*	*k[]	*k[]	*k[]
*a:	*	*a:	*	*a:	*a:	*a:
*M2/2	*	*M2/2	*	*M2/2	*M2/2	*M2/2
*met(C|)	*	*met(C|)	*	*met(C|)	*met(C|)	*met(C|)
=1-	=1-	=1-	=1-	=1-	=1-	=1-
!LO:TX:b:t=Adagio.	!	!LO:TX:b:t=Adagio.	!	!LO:TX:b:t=Adagio.	!LO:TX:b:t=Adagio.	!
[<1A	5 #	[<1A	5 #	2r	4r	0r
.	.	.	.	.	4aa\	.
.	.	.	.	4r	4ee\	.
.	6 x	.	6 x	4aa\	4ff\	.
=2-	=2-	=2-	=2-	=2-	=2-	=2-
!LO:TX:t=P:problem=kreska pseudotaktowa	!	!LO:TX:t=P:problem=kreska pseudotaktowa	!	!	!	!
1A_<	5 #	1A_<	5 #	4ee\	4.cc#X\	.
.	6 4	.	6 4	4ff\	.	.
.	.	.	.	.	8dd\	.
.	5 #	.	5 #	4.cc#X\	2ee\	.
.	6 4	.	6 4	8dd\	.	.
=3-	=3-	=3-	=3-	=3-	=3-	=3-
1A]	#	1A]	#	2ee\	00r	8r
!	!	!	!	!	!	!LO:TX:b:t=Adagio.
.	.	.	.	.	.	8E\
.	.	.	.	.	.	8A\
.	.	.	.	.	.	8E\
.	.	.	.	2r	.	8C#X/
.	.	.	.	.	.	16D/
.	.	.	.	.	.	16E\
.	.	.	.	.	.	8AA/
.	.	.	.	.	.	16BB/
!	!	!	!	!	!	!LO:TX:t=P:problem=kreska pseudotaktowa
.	.	.	.	.	.	16C#X/
=4-	=4-	=4-	=4-	=4-	=4-	=4-
1D	#	1D	#	00r	.	8D/
.	.	.	.	.	.	8A\
.	.	.	.	.	.	8d\
.	.	.	.	.	.	8A\
.	.	.	.	.	.	8F#X\
.	.	.	.	.	.	16G\
.	.	.	.	.	.	16A\
.	.	.	.	.	.	8D/
.	.	.	.	.	.	16E\
!	!	!	!	!	!	!LO:TX:t=P:problem=kreska pseudotaktowa
.	.	.	.	.	.	16F#X\
=5-	=5-	=5-	=5-	=5-	=5-	=5-
1G	.	1G	.	.	.	8G\
.	.	.	.	.	.	8D/
.	.	.	.	.	.	8G\
.	.	.	.	.	.	8D/
.	.	.	.	.	.	8BB/
.	.	.	.	.	.	16Cny/
.	.	.	.	.	.	16D/
.	.	.	.	.	.	8GG/
.	.	.	.	.	.	16AA/
!	!	!	!	!	!	!LO:TX:t=P:problem=kreska pseudotaktowa
.	.	.	.	.	.	16BB/
=6-	=6-	=6-	=6-	=6-	=6-	=6-
1C	.	1C	.	.	.	8C/
.	.	.	.	.	.	8G\
.	.	.	.	.	.	8c\
.	.	.	.	.	.	8G\
*	*	*	*	*	*	*custos:E
!	!	!	!	!	!	!LO:LB:g=original
.	.	.	.	.	.	8E\
.	.	.	.	.	.	16Fny\
.	.	.	.	.	.	16G\
.	.	.	.	.	.	8C/
.	.	.	.	.	.	16D/
!	!	!	!	!	!	!LO:TX:t=P:problem=kreska pseudotaktowa
.	.	.	.	.	.	16E\
=7-	=7-	=7-	=7-	=7-	=7-	=7-
4.F\	.	4.F\	.	.	0r	8F\
.	.	.	.	.	.	8A\
.	.	.	.	.	.	8F\
8E\	.	8E\	.	.	.	16E\
.	.	.	.	.	.	16F\
!LO:TX:t=P:problem=kreska pseudotaktowa	!	!LO:TX:t=P:problem=kreska pseudotaktowa	!	!	!	!
2D/	.	2D/	.	.	.	8D/
.	.	.	.	.	.	8F\
.	.	.	.	.	.	8D/
.	.	.	.	.	.	16C/
.	.	.	.	.	.	16BB/
=8-	=8-	=8-	=8-	=8-	=8-	=8-
2AA/	#	2AA/	#	1r	.	4AA/
.	.	.	.	.	.	4A\
4E\	#	4E\	#	.	.	4E\
4F\	.	4F\	.	.	.	4F\
=9-	=9-	=9-	=9-	=9-	=9-	=9-
4.C#X/	.	4.C#X/	.	2r	4r	4.C#X/
.	.	.	.	.	4ee\	.
8D/	.	8D/	.	.	.	8D/
2E\	5 #	2E\	5 #	4r	4b/	1E\
.	6 x	.	6 x	4ee\	4ccny\	.
=10-	=10-	=10-	=10-	=10-	=10-	=10-
!LO:TX:t=P:problem=kreska pseudotaktowa	!	!LO:TX:t=P:problem=kreska pseudotaktowa	!	!	!	!
[<1E	5 #	[<1E	5 #	4b/	4.g#X/	.
.	6 4	.	6 4	4ccny\	.	.
.	.	.	.	.	8a/	.
.	5 #	.	5 #	4.g#X/	2b/	2E\
.	x 4	.	x 4	8a/	.	.
=11-	=11-	=11-	=11-	=11-	=11-	=11-
!	!	!	!	!	!	!LO:TX:t=P:problem=kreska pseudotaktowa
1E]	#	1E]	#	8b/	8r	1E
.	.	.	.	8cc\	8ee\	.
.	.	.	.	8g#X/	8b/	.
.	.	.	.	8a/	8cc\	.
.	.	.	.	2b/	8g#X/	.
.	4	.	4	.	4a/	.
.	#	.	#	.	8g#X/	.
=12-	=12-	=12-	=12-	=12-	=12-	=12-
1AA	#	1AA	#	2a/	2a/	8AA/
.	.	.	.	.	.	8E\
.	.	.	.	.	.	8A\
.	.	.	.	.	.	8E\
!	!	!	!	!LO:TX:t=P:problem=kreska pseudotaktowa	!LO:TX:t=P:problem=kreska pseudotaktowa	!
.	.	.	.	2r	2r	8C#X/
.	.	.	.	.	.	16D/
.	.	.	.	.	.	16E\
.	.	.	.	.	.	8AA/
.	.	.	.	.	.	16BB/
.	.	.	.	.	.	16C#X/
=13-	=13-	=13-	=13-	=13-	=13-	=13-
[<1D	#	[<1D	#	8r	4r	2D/
.	.	.	.	8dd\	.	.
.	.	.	.	8a/	8r	.
.	.	.	.	8b/	8dd\	.
.	.	.	.	8f#X/	8a/	2r
.	.	.	.	8dd\	8b/	.
.	.	.	.	8a/	8f#X/	.
.	.	.	.	8b/	8dd\	.
=14-	=14-	=14-	=14-	=14-	=14-	=14-
1D]	#	1D]	#	8f#X/	8a/	1r
.	.	.	.	8gny/	8b/	.
.	.	.	.	8a/	8f#X/	.
.	.	.	.	8b/	8gny/	.
*	*	*	*	*custos:f	*	*
!	!	!	!	!LO:LB:g=original	!	!
.	.	.	.	8f#X/	8a/	.
.	.	.	.	4g/	8b/	.
.	.	.	.	.	4a/	.
.	.	.	.	8f#X/	.	.
*	*	*	*	*	*	*custos:D
!	!	!	!	!	!	!LO:LB:g=original
=15-	=15-	=15-	=15-	=15-	=15-	=15-
1GG	.	1GG	.	2g/	2g/	8r
.	.	.	.	.	.	8D/
.	.	.	.	.	.	8G\
.	.	.	.	.	.	8D/
!	!	!	!	!LO:TX:t=P:problem=kreska pseudotaktowa	!	!
.	.	.	.	2r	2r	8BB/
.	.	.	.	.	.	16Cny/
.	.	.	.	.	.	16D/
.	.	.	.	.	.	8GG/
.	.	.	.	.	.	16AA/
.	.	.	.	.	.	16BB/
*	*	*	*	*	*custos:cc	*
!	!	!	!	!	!LO:LB:g=original	!
=16-	=16-	=16-	=16-	=16-	=16-	=16-
[1Cny	.	[1Cny	.	8r	4r	2C/
.	.	.	.	8cc\	.	.
.	.	.	.	8g/	8r	.
.	.	.	.	8a/	8cc\	.
.	.	.	.	8e/	8g/	2r
.	.	.	.	8cc\	8a/	.
.	.	.	.	8g/	8e/	.
!	!	!	!	!LO:TX:t=P:problem=kreska pseudotaktowa	!	!
.	.	.	.	8a/	8cc\	.
=17-	=17-	=17-	=17-	=17-	=17-	=17-
1C]	.	1C]	.	8e/	8g/	1r
.	.	.	.	8fny/	8a/	.
.	.	.	.	8g/	8e/	.
.	.	.	.	8a/	8fny/	.
.	.	.	.	8e/	8g/	.
.	.	.	.	4f/	8a/	.
.	.	.	.	.	4g/	.
.	.	.	.	8e/	.	.
=18-	=18-	=18-	=18-	=18-	=18-	=18-
2FF/	.	2FF/	.	2f/	2f/	8r
.	.	.	.	.	.	8C/
.	.	.	.	.	.	8F\
.	.	.	.	.	.	8C/
!	!	!	!	!LO:TX:t=P:problem=kreska pseudotaktowa	!LO:TX:t=P:problem=kreska pseudotaktowa	!
4AA/	#	4AA/	#	2r	2r	8AA/
.	.	.	.	.	.	16BB/
.	.	.	.	.	.	16C#X/
4BB-X/	6	4BB-X/	6	.	.	16D/
.	.	.	.	.	.	16DD/
.	.	.	.	.	.	16FF/
.	.	.	.	.	.	16GG/
=19-	=19-	=19-	=19-	=19-	=19-	=19-
[1AA	#	[1AA	#	8r	4r	2AA/
.	.	.	.	8aa\	.	.
.	.	.	.	8ee\	8r	.
.	.	.	.	8ff\	8aa\	.
.	.	.	.	8cc#X\	8ee\	2r
.	.	.	.	8aa\	8ff\	.
.	.	.	.	8ee\	8cc#X\	.
!	!	!	!	!LO:TX:t=P:problem=kreska pseudotaktowa	!LO:TX:t=P:problem=kreska pseudotaktowa	!
.	.	.	.	8ff\	8aa\	.
=20-	=20-	=20-	=20-	=20-	=20-	=20-
1AA]	#	1AA]	#	8cc#X\	8ee\	1r
.	.	.	.	8dd\	8ff\	.
.	.	.	.	8ee\	8cc#X\	.
.	.	.	.	8ff\	8dd\	.
.	.	.	.	8cc#X\	8ee\	.
.	.	.	.	4dd\	8ff\	.
!	!	!	!	!	!LO:TX:t=P:problem=kreska pseudotaktowa	!
.	.	.	.	.	4ee\	.
.	.	.	.	8cc#X\	.	.
*	*	*	*	*custos:dd	*	*
!	!	!	!	!LO:LB:g=original	!	!
=21-	=21-	=21-	=21-	=21-	=21-	=21-
1D	#	1D	#	2dd\	2dd\	8r
.	.	.	.	.	.	8A\
.	.	.	.	.	.	8d\
.	.	.	.	.	.	8A\
!	!	!	!	!LO:TX:t=P:problem=kreska pseudotaktowa	!	!
.	.	.	.	2r	2r	8F#X\
.	.	.	.	.	.	16G\
.	.	.	.	.	.	16A\
.	.	.	.	.	.	8D/
.	.	.	.	.	.	16E\
.	.	.	.	.	.	16F#X\
=22-	=22-	=22-	=22-	=22-	=22-	=22-
[1GG	.	[1GG	.	8r	4r	2G\
.	.	.	.	8gg\	.	.
.	.	.	.	8dd\	8r	.
.	.	.	.	8ee\	8gg\	.
.	.	.	.	8b/	8dd\	2r
.	.	.	.	8gg\	8ee\	.
.	.	.	.	8dd\	8b/	.
.	.	.	.	8ee\	8gg\	.
=23-	=23-	=23-	=23-	=23-	=23-	=23-
1GG]	.	1GG]	.	8b/	8dd\	1r
.	.	.	.	8ccny\	8ee\	.
.	.	.	.	8dd\	8b/	.
.	.	.	.	8ee\	8ccny\	.
.	.	.	.	8b/	8dd\	.
.	.	.	.	4cc\	8ee\	.
*	*	*	*	*	*custos:dd	*
!	!	!	!	!	!LO:PB:g=original	!
.	.	.	.	.	4dd\	.
.	.	.	.	8b/	.	.
*	*	*	*	*	*	*custos:C
!	!	!	!	!	!	!LO:PB:g=original
=24-	=24-	=24-	=24-	=24-	=24-	=24-
2C/	.	2C/	.	2cc\	2cc\	2r
*custos:C	*	*custos:C	*	*	*	*
!LO:LB:g=original	!	!LO:LB:g=original	!	!	!	!
4r	.	4r	.	4r	4r	4r
!	!	!	!	!LO:TX:t=P:problem=kreska pseudotaktowa	!	!
4C/	.	4C/	.	4cc\	4ee\	4Cny/
=25-	=25-	=25-	=25-	=25-	=25-	=25-
2.E\	#	2.E\	#	4g#X/	4b/	4E\
.	.	.	.	8r	8r	8r
.	.	.	.	8g#/	8b/	8E\
.	.	.	.	4g#/	4b/	4E\
!	!	!	!	!LO:TX:t=P:problem=kreska pseudotaktowa	!	!
4F\	.	4F\	.	4a/	4a/	4Fny\
=26-	=26-	=26-	=26-	=26-	=26-	=26-
2E\	#	2E\	#	2g#X/	2b/	2E\
8r	.	8r	.	8r	8r	8r
8C/	.	8C/	.	16cc\	16ee\	16C/
.	.	.	.	16cc\	16ee\	16C/
8C/	.	8C/	.	8cc\	8ee\	8C/
!	!	!	!	!	!LO:TX:t=P:problem=kreska pseudotaktowa	!
8C/	.	8C/	.	8cc\	8ee\	8C/
=27-	=27-	=27-	=27-	=27-	=27-	=27-
8G\	.	8G\	.	8b/	8dd\	8G\
8E\	.	8E\	.	16ee\	16gg\	16E\
.	.	.	.	16ee\	16gg\	16E\
8E\	.	8E\	.	8ee\	8gg\	8E\
8E\	.	8E\	.	8ee\	8gg\	8E\
8B\	#	8B\	#	8dd#X\	8ff#X\	8B\
8G\	6	8G\	6	8ee\	8gg\	8G\
8A\	6 5	8A\	6 5	8.ee\	8.ff#X\	8A\
8B\	#	8B\	#	.	.	8B\
!	!	!	!	!	!LO:TX:t=P:problem=kreska pseudotaktowa	!
.	.	.	.	16dd#X\	16ff#\	.
*	*	*	*	*custos:ee	*	*
!	!	!	!	!LO:LB:g=original	!	!
=28-	=28-	=28-	=28-	=28-	=28-	=28-
4E\	.	4E\	.	8.ee\	8.ee\	8.E\
.	.	.	.	16cc\	16ee\	16E\
8F\	6 5	8F\	6 5	8.cc\	8.dd\	8F\
8G\	.	8G\	.	.	.	8G\
.	.	.	.	16b/	16dd\	.
4C/	.	4C/	.	8.cc\	8.cc\	8.C/
.	.	.	.	16a/	16cc\	16C/
8D/	6	8D/	6	8.a/	8.b/	8D/
8E\	#	8E\	#	.	.	8E\
!	!	!	!	!	!LO:TX:t=P:problem=kreska pseudotaktowa	!
.	.	.	.	16g#X/	16b/	.
=29-	=29-	=29-	=29-	=29-	=29-	=29-
1AA	5	1AA	5	2a/	4a/	2AA/
.	.	.	.	.	4aa\	.
.	.	.	.	4r	4ee\	2r
!	!	!	!	!LO:TX:t=P:problem=kreska pseudotaktowa	!	!
.	6	.	6	4aa\	4ffny\	.
=30-	=30-	=30-	=30-	=30-	=30-	=30-
1AA	5 #	1AA	5 #	4ee\	4.cc#X\	1r
.	6 4	.	6 4	4ff\	.	.
.	.	.	.	.	8dd\	.
*	*	*	*	*	*custos:ee	*
!	!	!	!	!	!LO:LB:g=original	!
.	5 #	.	5 #	4.cc#X\	2ee\	.
.	6 4	.	6 4	8ddny\	.	.
=31-	=31-	=31-	=31-	=31-	=31-	=31-
2AA/	#	2AA/	#	2ee\	1r	4r
.	.	.	.	.	.	4A\
!	!	!	!	!LO:TX:t=P:problem=kreska pseudotaktowa	!	!
4E\	.	4E\	.	2r	.	4E\
4F\	.	4F\	.	.	.	4F\
=32-	=32-	=32-	=32-	=32-	=32-	=32-
4.C#X/	.	4.C#X/	.	2r	4r	4.C#X/
.	.	.	.	.	4ee\	.
8D/	.	8D/	.	.	.	8D/
2E\	5	2E\	5	4r	4b/	1E\
!	!	!	!	!LO:TX:t=P:problem=kreska pseudotaktowa	!	!
.	6	.	6	4ee\	4ccny\	.
=33-	=33-	=33-	=33-	=33-	=33-	=33-
[<1E	5 #	[<1E	5 #	4b/	4.g#X/	.
.	6 4	.	6 4	4ccny\	.	.
.	.	.	.	.	8a/	.
.	5 #	.	5 #	4.g#X/	2b/	2E\
.	6 4	.	6 4	8a/	.	.
=34-	=34-	=34-	=34-	=34-	=34-	=34-
1E]	#	1E]	#	8b/	8r	1E
.	.	.	.	8cc\	8ee\	.
.	.	.	.	8g#X/	8b/	.
.	.	.	.	8a/	8cc\	.
.	.	.	.	2b/	8g#X/	.
.	4	.	4	.	4a/	.
.	#	.	#	.	8g#X/	.
=35-	=35-	=35-	=35-	=35-	=35-	=35-
!LO:TX:t=P:problem=kreska pseudotaktowa	!	!LO:TX:t=P:problem=kreska pseudotaktowa	!	!	!	!
1AA;	.	1AA;	.	1a	1a	1AA;
*custos:A	*	*custos:A	*	*	*	*custos:E
!LO:LB:g=original	!	!LO:LB:g=original	!	!	!	!LO:LB:g=original
=36-	=36-	=36-	=36-	=36-	=36-	=36-
*M3/2	*	*M3/2	*	*M3/2	*M3/2	*M3/2
2A\	.	2A\	.	2r	4.ee\	2r
.	.	.	.	.	8ff\	.
2E\	.	2E\	.	2r	2gg\	4.E\
.	.	.	.	.	.	8F\
!	!	!	!	!	!	!LO:TX:t=P:problem=kreska pseudotaktowa
2G\	.	2G\	.	4.b/	4.dd\	2G\
.	.	.	.	8cc\	8ee\	.
*	*	*	*	*custos:dd	*	*
!	!	!	!	!LO:LB:g=original	!	!
=37-	=37-	=37-	=37-	=37-	=37-	=37-
1.D	5	1.D	5	4dd\	4ff\	2D/
.	.	.	.	4ee\	4gg\	.
.	.	.	.	4dd\	4ff\	2D/
.	.	.	.	4cc\	4ee\	.
.	6	.	6	4b/	4dd\	2D/
!	!	!	!	!	!LO:TX:t=P:problem=kreska pseudotaktowa	!
.	.	.	.	4a/	4cc\	.
=38-	=38-	=38-	=38-	=38-	=38-	=38-
1.E	#	1.E	#	2.g#X/	2.b/	4E\
.	.	.	.	.	.	4D/
.	.	.	.	.	.	4E\
.	.	.	.	4a/	4a/	4F\
!	!	!	!	!LO:TX:t=P:problem=kreska pseudotaktowa	!	!
.	.	.	.	2b/	2g#X/	4E\
.	.	.	.	.	.	4EE/
=39-	=39-	=39-	=39-	=39-	=39-	=39-
1A	.	1A	.	4a/	4a/	2AA/
.	.	.	.	4g#X/	4b/	.
.	.	.	.	4a/	4cc\	2A\
.	.	.	.	4b/	4dd\	.
4G\	.	4G\	.	4cc\	4ee\	4G\
!	!	!	!	!	!	!LO:TX:t=P:problem=kreska pseudotaktowa
4F\	.	4F\	.	4dd\	4ff\	4F\
*	*	*	*	*	*custos:gg	*
!	!	!	!	!	!LO:LB:g=original	!
=40-	=40-	=40-	=40-	=40-	=40-	=40-
1E	.	1E	.	2ee\	4gg\	4E\
.	.	.	.	.	4aa\	4F\
.	.	.	.	2ee\	4gg\	4E\
.	.	.	.	.	4ff#X\	4D/
2Cny/	.	2Cny/	.	2ee\	4ee\	4Cny/
.	.	.	.	.	4gg\	4BB/
=41-	=41-	=41-	=41-	=41-	=41-	=41-
1AA	6 #	1AA	6 #	4ff#X\	4aa\	2AA/
.	.	.	.	4ee\	4gg\	.
.	.	.	.	4ff#X\	4aa\	2AA/
.	.	.	.	4ee\	4gg\	.
!	!	!	!	!	!	!LO:TX:t=P:problem=kreska pseudotaktowa
2BBny/	5 #	2BBny/	5 #	2dd#X\	2ff#X\	2BB/
=42-	=42-	=42-	=42-	=42-	=42-	=42-
2GG/	6	2GG/	6	2ee\	2gg\	2GG/
2AA/	6 5	2AA/	6 5	2.ee\	2.ff#X\	2AA/
2BB/	#	2BB/	#	.	.	2BB/
!	!	!	!	!LO:TX:t=P:problem=kreska pseudotaktowa	!	!
.	.	.	.	4dd#X\	4ff#\	.
=43-	=43-	=43-	=43-	=43-	=43-	=43-
1E	.	1E	.	2ee\	4.ee\	2EE/
.	.	.	.	.	8ffny\	.
.	.	.	.	2r	2gg\	4.E\
.	.	.	.	.	.	8F\
!LO:TX:t=P:problem=kreska pseudotaktowa	!	!LO:TX:t=P:problem=kreska pseudotaktowa	!	!	!	!
2G\	.	2G\	.	4.b/	4.dd\	2G\
!	!	!	!	!	!LO:TX:t=P:problem=kreska pseudotaktowa	!
.	.	.	.	8cc\	8ee\	.
*	*	*	*	*	*	*custos:D
!	!	!	!	!	!	!LO:LB:g=original
=44-	=44-	=44-	=44-	=44-	=44-	=44-
1.D	5	1.D	5	4ddny\	4ff\	2D/
.	.	.	.	4ee\	4gg\	.
.	.	.	.	4dd\	4ff\	2D/
.	.	.	.	4cc\	4ee\	.
.	6	.	6	4b/	4dd\	2D/
.	.	.	.	4a/	4cc\	.
*	*	*	*	*custos:g	*	*
!	!	!	!	!LO:LB:g=original	!	!
=45-	=45-	=45-	=45-	=45-	=45-	=45-
1.E	#	1.E	#	2.g#X/	2.b/	4E\
.	.	.	.	.	.	4D/
.	.	.	.	.	.	4E\
.	.	.	.	4a/	4a/	4F\
.	.	.	.	2b/	2g#X/	4E\
!	!	!	!	!	!	!LO:TX:t=P:problem=kreska pseudotaktowa
.	.	.	.	.	.	4EE/
=46-	=46-	=46-	=46-	=46-	=46-	=46-
2A\	.	2A\	.	1a	1a	4A\
.	.	.	.	.	.	8B\
.	.	.	.	.	.	8c\
2F\	.	2F\	.	.	.	4F\
.	.	.	.	.	.	8G\
.	.	.	.	.	.	8A\
2D/	.	2D/	.	2r	2r	4D/
.	.	.	.	.	.	8E\
!	!	!	!	!	!	!LO:TX:t=P:problem=kreska pseudotaktowa
.	.	.	.	.	.	8F\
=47-	=47-	=47-	=47-	=47-	=47-	=47-
!	!	!	!	!LO:TX:t=P:problem=kreska pseudotaktowa	!	!
1G	.	1G	.	1.r	1.r	4G\
.	.	.	.	.	.	4A\
.	.	.	.	.	.	4G\
.	.	.	.	.	.	4F\
!LO:TX:t=P:problem=kreska pseudotaktowa	!	!LO:TX:t=P:problem=kreska pseudotaktowa	!	!	!	!
2E\	.	2E\	.	.	.	4E\
.	.	.	.	.	.	4D/
=48-	=48-	=48-	=48-	=48-	=48-	=48-
1C	5	1C	5	4cc\	4ee\	1C
.	.	.	.	8dd\	8ff\	.
.	.	.	.	8ee\	8gg\	.
.	6	.	6	4a/	4cc\	.
.	.	.	.	8b/	8dd\	.
.	.	.	.	8cc\	8ee\	.
*	*	*	*	*	*custos:a	*
!	!	!	!	!	!LO:LB:g=original	!
2D/	#	2D/	#	4f#X/	4a/	2D/
.	.	.	.	8gny/	8b/	.
!	!	!	!	!LO:TX:t=P:problem=kreska pseudotaktowa	!	!
.	.	.	.	8a/	8cc\	.
=49-	=49-	=49-	=49-	=49-	=49-	=49-
1GG	.	1GG	.	4b/	4dd\	2GG/
.	.	.	.	4cc\	4ee\	.
.	.	.	.	4b/	4dd\	2GG/
.	.	.	.	4a/	4cc\	.
2G\	.	2G\	.	4g/	4b/	2G\
.	.	.	.	4fny/	4a/	.
=50-	=50-	=50-	=50-	=50-	=50-	=50-
1c	.	1c	.	2.e/	2.gny/	4c\
.	.	.	.	.	.	4d\
.	.	.	.	.	.	4c\
.	.	.	.	4e/	4g/	4B\
!LO:TX:t=P:problem=kreska pseudotaktowa	!	!LO:TX:t=P:problem=kreska pseudotaktowa	!	!	!	!
2A\	.	2A\	.	4f/	4a/	4A\
!	!	!	!	!	!	!LO:TX:t=P:problem=kreska pseudotaktowa
.	.	.	.	4g/	4b/	4G\
=51-	=51-	=51-	=51-	=51-	=51-	=51-
2.F\	.	2.F\	.	2.a/	2.cc\	4F\
.	.	.	.	.	.	4G\
.	.	.	.	.	.	4F\
4E\	.	4E\	.	4a/	4cc\	4E\
4D/	.	4D/	.	4b/	4dd\	4D/
4C/	.	4C/	.	4cc\	4ee\	4C/
*	*	*	*	*	*	*custos:G
!	!	!	!	!	!	!LO:LB:g=original
=52-	=52-	=52-	=52-	=52-	=52-	=52-
1.G	.	1.G	.	2.b/	2.dd\	4G\
.	.	.	.	.	.	4F\
.	.	.	.	.	.	4G\
.	.	.	.	4cc\	4cc\	4A\
!	!	!	!	!	!LO:TX:t=P:problem=kreska pseudotaktowa	!
.	.	.	.	2dd\	2b/	4G\
.	.	.	.	.	.	4GG/
=53-	=53-	=53-	=53-	=53-	=53-	=53-
1C	.	1C	.	1cc	4ee\	4C/
.	.	.	.	.	8ff\	4BB/
.	.	.	.	.	8gg\	.
.	.	.	.	.	4cc\	4AA/
.	.	.	.	.	8dd\	4GG/
.	.	.	.	.	8ee\	.
2F\	.	2F\	.	2r	4a/	4FF/
!	!	!	!	!	!	!LO:TX:t=P:problem=kreska pseudotaktowa
.	.	.	.	.	8b/	4EE/
!	!	!	!	!	!LO:TX:t=P:problem=kreska pseudotaktowa	!
.	.	.	.	.	8cc\	.
*custos:D	*	*custos:D	*	*	*	*
!LO:LB:g=original	!	!LO:LB:g=original	!	!	!	!
=54-	=54-	=54-	=54-	=54-	=54-	=54-
1.D	#	1.D	#	1.r	4dd\	2DD/
.	.	.	.	.	4ee\	.
.	.	.	.	.	4dd\	4F#X\
.	.	.	.	.	4cc\	8G\
.	.	.	.	.	.	8A\
.	.	.	.	.	4b/	4D/
.	.	.	.	.	4a/	8E\
!	!	!	!	!	!	!LO:TX:t=P:problem=kreska pseudotaktowa
.	.	.	.	.	.	8F#X\
*	*	*	*	*custos:b	*	*
!	!	!	!	!LO:LB:g=original	!	!
=55-	=55-	=55-	=55-	=55-	=55-	=55-
2G\	.	2G\	.	4b/	2g/	4G\
.	.	.	.	8cc\	.	4Fny\
.	.	.	.	8dd\	.	.
2E\	.	2E\	.	4g/	2r	4E\
.	.	.	.	8a/	.	4D/
.	.	.	.	8b/	.	.
!LO:TX:t=P:problem=kreska pseudotaktowa	!	!LO:TX:t=P:problem=kreska pseudotaktowa	!	!	!	!
2C/	.	2C/	.	4e/	2r	4C/
.	.	.	.	8f/	.	4BB/
.	.	.	.	8g/	.	.
*	*	*	*	*	*custos:b	*
!	!	!	!	!	!LO:LB:g=original	!
=56-	=56-	=56-	=56-	=56-	=56-	=56-
2AA/	.	2AA/	.	4a/	1.r	4AA/
.	.	.	.	4b/	.	4GG/
2FF/	.	2FF/	.	4a/	.	4FF/
.	.	.	.	4g/	.	4EE/
2DD/	.	2DD/	.	4f/	.	2DD/
.	.	.	.	4e/	.	.
=57-	=57-	=57-	=57-	=57-	=57-	=57-
1GG	.	1GG	.	2d/	4b/	1.r
.	.	.	.	.	8cc\	.
.	.	.	.	.	8dd\	.
.	.	.	.	2r	4g/	.
.	.	.	.	.	8a/	.
.	.	.	.	.	8b/	.
!LO:TX:t=P:problem=kreska pseudotaktowa	!	!LO:TX:t=P:problem=kreska pseudotaktowa	!	!	!	!
2C/	.	2C/	.	4ccc\	4e/	.
!	!	!	!	!LO:TX:t=P:problem=kreska pseudotaktowa	!	!
.	.	.	.	4bb\	8f/	.
!	!	!	!	!	!LO:TX:t=P:problem=kreska pseudotaktowa	!
.	.	.	.	.	8g/	.
=58-	=58-	=58-	=58-	=58-	=58-	=58-
2F\	.	2F\	.	4aa\	4a/	4F\
.	.	.	.	4gg\	8b/	8G\
.	.	.	.	.	8cc\	8A\
2D/	.	2D/	.	4ffny\	4f/	4D/
.	.	.	.	4ee\	8g/	8E\
.	.	.	.	.	8a/	8F\
2BB/	.	2BB/	.	4dd\	4d/	4BB/
.	.	.	.	4cc\	8e/	8C/
.	.	.	.	.	8f/	8D/
*	*	*	*	*	*	*custos:E
!	!	!	!	!	!	!LO:LB:g=original
=59-	=59-	=59-	=59-	=59-	=59-	=59-
1E	.	1E	.	4b/	2g/	4E\
.	.	.	.	4a/	.	4F\
.	.	.	.	4g/	2r	4E\
.	.	.	.	4f/	.	4D/
!LO:TX:t=P:problem=kreska pseudotaktowa	!	!LO:TX:t=P:problem=kreska pseudotaktowa	!	!	!LO:TX:t=P:problem=kreska pseudotaktowa	!
2C/	.	2C/	.	4e/	2r	4C/
!	!	!	!	!LO:TX:t=P:problem=kreska pseudotaktowa	!	!
.	.	.	.	4d/	.	4BB/
=60-	=60-	=60-	=60-	=60-	=60-	=60-
2AA/	.	2AA/	.	2c/	4aa\	2AA/
.	.	.	.	.	8bb\	.
.	.	.	.	.	8ccc\	.
2.D/	.	2.D/	.	2r	4ff#X\	2r
.	.	.	.	.	8gg\	.
.	.	.	.	.	8aa\	.
!	!	!	!	!	!	!LO:TX:t=P:problem=kreska pseudotaktowa
.	.	.	.	2r	4dd\	2r
4C/	.	4C/	.	.	8ee\	.
.	.	.	.	.	8ff#X\	.
=61-	=61-	=61-	=61-	=61-	=61-	=61-
2.BB/	.	2.BB/	.	1.r	2gg\	4D/
.	.	.	.	.	.	8E\
.	.	.	.	.	.	8F\
.	.	.	.	.	2r	4BB/
4AA/	.	4AA/	.	.	.	8C/
.	.	.	.	.	.	8D/
!	!	!	!	!	!LO:TX:t=P:problem=kreska pseudotaktowa	!
2GG/	.	2GG/	.	.	2r	4GG/
.	.	.	.	.	.	8AA/
.	.	.	.	.	.	8BB/
=62-	=62-	=62-	=62-	=62-	=62-	=62-
1C	.	1C	.	4gg\	1.r	2C/
.	.	.	.	8aa\	.	.
.	.	.	.	8bb\	.	.
.	.	.	.	4ee\	.	2r
.	.	.	.	8ff\	.	.
.	.	.	.	8gg\	.	.
!	!	!	!	!	!	!LO:TX:t=P:problem=kreska pseudotaktowa
2AA/	.	2AA/	.	4cc\	.	2r
.	.	.	.	8dd\	.	.
.	.	.	.	8ee\	.	.
=63-	=63-	=63-	=63-	=63-	=63-	=63-
2FF/	.	2FF/	.	2ff\	4ccc\	4A\
.	.	.	.	.	4bb\	8B\
.	.	.	.	.	.	8c\
2F\	.	2F\	.	2r	4aa\	4F\
.	.	.	.	.	4gg\	8G\
.	.	.	.	.	.	8A\
2D/	.	2D/	.	2r	4ffny\	4D/
.	.	.	.	.	4ee\	8E\
!	!	!	!	!	!	!LO:TX:t=P:problem=kreska pseudotaktowa
.	.	.	.	.	.	8F\
*	*	*	*	*custos:b	*custos:dd	*
!	!	!	!	!LO:LB:g=original	!LO:LB:g=original	!
=64-	=64-	=64-	=64-	=64-	=64-	=64-
2G\	.	2G\	.	4b/	2dd\	4G\
.	.	.	.	4a/	.	8A\
.	.	.	.	.	.	8B\
2E\	.	2E\	.	2g/	4gg\	4E\
.	.	.	.	.	4ff\	8F\
.	.	.	.	.	.	8G\
2C/	.	2C/	.	2gg\	2ee\	4C/
.	.	.	.	.	.	8D/
.	.	.	.	.	.	8E\
*	*	*	*	*	*	*custos:F
!	!	!	!	!	!	!LO:LB:g=original
=65-	=65-	=65-	=65-	=65-	=65-	=65-
1F	5	1F	5	4ff\	4aa\	2F\
.	.	.	.	8gg\	8bb\	.
.	.	.	.	8aa\	8ccc\	.
.	6	.	6	4dd\	4ff\	2F\
.	.	.	.	8ee\	8gg\	.
.	.	.	.	8ff\	8aa\	.
2G\	.	2G\	.	4b/	4dd\	2G\
.	.	.	.	8cc\	8ee\	.
.	.	.	.	8dd\	8ff\	.
=66-	=66-	=66-	=66-	=66-	=66-	=66-
1E	5	1E	5	4ee\	4gg\	2E\
.	.	.	.	8ff\	8aa\	.
.	.	.	.	8gg\	8bb\	.
.	6	.	6	4cc\	4ee\	2E\
.	.	.	.	8dd\	8ff\	.
.	.	.	.	8ee\	8gg\	.
2F\	.	2F\	.	4a/	4cc\	2F\
.	.	.	.	8b/	8dd\	.
!	!	!	!	!LO:TX:t=P:problem=kreska pseudotaktowa	!	!
.	.	.	.	8cc\	8ee\	.
=67-	=67-	=67-	=67-	=67-	=67-	=67-
1.D	5	1.D	5	4dd\	4ff\	2D/
.	.	.	.	4ee\	4gg\	.
.	.	.	.	4dd\	4ff\	2D/
.	6	.	6	4cc\	4ee\	.
.	.	.	.	4b/	4dd\	2D/
!	!	!	!	!	!LO:TX:t=P:problem=kreska pseudotaktowa	!
.	.	.	.	4a/	4cc\	.
=68-	=68-	=68-	=68-	=68-	=68-	=68-
1E	-	1E	-	4g/	2b/	4E\
.	.	.	.	4a/	.	4F\
.	.	.	.	4g/	2r	4E\
.	.	.	.	4f/	.	4D/
2C/	.	2C/	.	4e/	2r	4C/
!	!	!	!	!LO:TX:t=P:problem=kreska pseudotaktowa	!	!LO:TX:t=P:problem=kreska pseudotaktowa
.	.	.	.	4d/	.	4BB/
=69-	=69-	=69-	=69-	=69-	=69-	=69-
2AA/	.	2AA/	.	2c/	4cc\	4AA/
.	.	.	.	.	8dd\	4GG/
.	.	.	.	.	8ee\	.
2FF/	.	2FF/	.	2r	4a/	4FF/
.	.	.	.	.	8b/	4EE/
.	.	.	.	.	8cc\	.
!	!	!	!	!	!	!LO:TX:t=P:problem=kreska pseudotaktowa
2DD/	#	2DD/	#	2r	4f#X/	2DD/
.	.	.	.	.	8g/	.
.	.	.	.	.	8a/	.
*custos:G	*	*custos:G	*	*	*custos:b	*
!LO:LB:g=original	!	!LO:LB:g=original	!	!	!LO:LB:g=original	!
=70-	=70-	=70-	=70-	=70-	=70-	=70-
2G\	.	2G\	.	1.r	4b/	4G\
.	.	.	.	.	8cc\	8A\
.	.	.	.	.	8dd\	8B\
2E\	.	2E\	.	.	4g/	4E\
.	.	.	.	.	8a/	8F\
.	.	.	.	.	8b/	8G\
!LO:TX:t=P:problem=kreska pseudotaktowa	!	!LO:TX:t=P:problem=kreska pseudotaktowa	!	!	!	!
2C/	.	2C/	.	.	4e/	4C/
.	.	.	.	.	8fny/	8D/
!	!	!	!	!	!LO:TX:t=P:problem=kreska pseudotaktowa	!
.	.	.	.	.	8g/	8E\
=71-	=71-	=71-	=71-	=71-	=71-	=71-
1.F	5	1.F	5	4aa\	2a/	2F\
.	.	.	.	8bb\	.	.
.	.	.	.	8ccc\	.	.
.	.	.	.	4ff\	4aa\	2F\
.	.	.	.	8gg\	8bb\	.
.	.	.	.	8aa\	8ccc\	.
*	*	*	*	*custos:dd	*	*
!	!	!	!	!LO:LB:g=original	!	!
.	6	.	6	4dd\	4ff\	2F\
.	.	.	.	8ee\	8gg\	.
!	!	!	!	!LO:TX:t=P:problem=kreska pseudotaktowa	!LO:TX:t=P:problem=kreska pseudotaktowa	!
.	.	.	.	8ff\	8aa\	.
=72-	=72-	=72-	=72-	=72-	=72-	=72-
*	*	*	*	*	*	*col
1.G	.	1.G	.	2.b/	4dd\	1G
.	.	.	.	.	8ee\	.
.	.	.	.	.	8ff\	.
.	.	.	.	.	2.b/	.
.	.	.	.	4cc\	.	.
.	.	.	.	4dd\	.	1GG/
.	.	.	.	4cc\	4cc\	.
=73-	=73-	=73-	=73-	=73-	=73-	=73-
2G\	.	2G\	.	2.b/	2.dd\	.
*col	*	*col	*	*	*	*
1A	4	1A	4	.	.	1AA
.	.	.	.	4b/	4dd\	.
*	*	*	*	*col	*	*
.	3	.	3	1a/	2cc\	.
*Xcol	*	*Xcol	*	*	*	*Xcol
=74-	=74-	=74-	=74-	=74-	=74-	=74-
2D/	6 5	2D/	6 5	.	2b/	2D/
*col	*	*col	*	*	*col	*col
.	4	.	4	.	.	.
1E	#	1E	#	1g#X	1b	1E
*Xcol	*	*Xcol	*	*Xcol	*Xcol	*Xcol
=75-	=75-	=75-	=75-	=75-	=75-	=75-
1.AA	.	1.AA	.	1.a	1.a	1.AA
*	*	*	*	*	*	*custos:AA
!	!	!	!	!	!	!LO:LB:g=original
=76-	=76-	=76-	=76-	=76-	=76-	=76-
*M2/2	*	*M2/2	*	*M2/2	*M2/2	*M2/2
*met(C|)	*	*met(C|)	*	*met(C|)	*met(C|)	*met(C|)
!LO:TX:b:t=preſto.	!	!LO:TX:b:t=preſto.	!	!LO:TX:b:t=presto.	!LO:TX:b:t=preſto.	!
2AA/	.	2AA/	.	1r	1r	8r
!	!	!	!	!	!	!LO:TX:b:t=preſto.
.	.	.	.	.	.	8AA/
.	.	.	.	.	.	8AA/
.	.	.	.	.	.	8AA/
4C/	.	4C/	.	.	.	8C/
.	.	.	.	.	.	8E\
4E\	.	4E\	.	.	.	8E\
.	.	.	.	.	.	8E\
=77-	=77-	=77-	=77-	=77-	=77-	=77-
2G\	.	2G\	.	2r	16r	2G\
.	.	.	.	.	16gg\	.
.	.	.	.	.	16ff\	.
.	.	.	.	.	16ee\	.
.	.	.	.	.	16dd\	.
.	.	.	.	.	16b/	.
.	.	.	.	.	16cc\	.
.	.	.	.	.	16dd\	.
4C/	.	4C/	.	16r	16ee\	2r
.	.	.	.	16ee\	16cc\	.
.	.	.	.	16dd\	16b/	.
.	.	.	.	16cc\	16a/	.
*	*	*	*	*	*custos:g	*
!	!	!	!	!	!LO:LB:g=original	!
4E\	.	4E\	.	16b/	16g/	.
.	.	.	.	16gny/	16e/	.
.	.	.	.	16a/	16f/	.
!	!	!	!	!	!LO:TX:t=P:problem=kreska pseudotaktowa	!
.	.	.	.	16b/	16g/	.
=78-	=78-	=78-	=78-	=78-	=78-	=78-
4AA/	.	4AA/	.	16cc\	4a/	16r
.	.	.	.	16cc\	.	16A\
.	.	.	.	16b/	.	16G\
.	.	.	.	16a/	.	16F\
4E\	.	4E\	.	16g/	4r	16E\
.	.	.	.	16e/	.	16C/
.	.	.	.	16f/	.	16D/
.	.	.	.	16g/	.	16E\
4F\	.	4F\	.	4a/	8r	8E\
.	.	.	.	.	8a/	8FF/
!LO:TX:t=P:problem=kreska pseudotaktowa	!	!LO:TX:t=P:problem=kreska pseudotaktowa	!	!LO:TX:t=P:problem=kreska pseudotaktowa	!	!
4FF/	.	4FF/	.	4r	8a/	8FF/
!	!	!	!	!	!LO:TX:t=P:problem=kreska pseudotaktowa	!LO:TX:t=P:problem=kreska pseudotaktowa
.	.	.	.	.	8a/	8FF/
=79-	=79-	=79-	=79-	=79-	=79-	=79-
4AA/	.	4AA/	.	2r	8cc\	8AA/
.	.	.	.	.	8ee\	8C/
4C/	.	4C/	.	.	8ee\	8C/
.	.	.	.	.	8ee\	8C/
!	!	!	!	!	!	!LO:TX:t=P:problem=kreska pseudotaktowa
[<2E\	5	[<2E\	5	8r	16gg\	2E\
.	.	.	.	.	16ee\	.
.	.	.	.	8e/	16dd\	.
.	.	.	.	.	16cc\	.
.	.	.	.	8e/	16b/	.
.	.	.	.	.	16e/	.
!	!	!	!	!LO:TX:t=P:problem=kreska pseudotaktowa	!	!
.	.	.	.	8e/	16g/	.
!	!	!	!	!	!LO:TX:t=P:problem=kreska pseudotaktowa	!
.	.	.	.	.	16a/	.
=80-	=80-	=80-	=80-	=80-	=80-	=80-
4E]	.	4E]	.	8g/	8b/	2r
.	.	.	.	8b/	8g/	.
4G\	.	4G\	.	8b/	8g/	.
.	.	.	.	8b/	8g/	.
*	*	*	*	*custos:dd	*	*
!	!	!	!	!LO:LB:g=original	!	!
!LO:TX:t=P:problem=kreska pseudotaktowa	!	!LO:TX:t=P:problem=kreska pseudotaktowa	!	!	!	!
2GG/	.	2GG/	.	4dd\	8b/	16r
.	.	.	.	.	.	16G\
.	.	.	.	.	8dd\	16F\
.	.	.	.	.	.	16E\
!	!	!	!	!LO:TX:t=P:problem=kreska pseudotaktowa	!	!
.	.	.	.	4r	8dd\	16D/
.	.	.	.	.	.	16GG/
!	!	!	!	!	!LO:TX:t=P:problem=kreska pseudotaktowa	!
.	.	.	.	.	8dd\	16BB/
.	.	.	.	.	.	16C/
=81-	=81-	=81-	=81-	=81-	=81-	=81-
4D/	-	4D/	-	16r	16ff\	4D/
.	.	.	.	16dd\	16ff\	.
.	.	.	.	16cc\	16ee\	.
.	.	.	.	16b/	16dd\	.
4A\	6 #	4A\	6 #	16a/	16cc\	4r
.	.	.	.	16f#X/	16a/	.
.	.	.	.	16g/	16b/	.
.	.	.	.	16a/	16cc\	.
2G\	.	2G\	.	16b/	4dd\	2r
.	.	.	.	16gg\	.	.
.	.	.	.	16ff\	.	.
.	.	.	.	16ee\	.	.
!	!	!	!	!	!LO:TX:t=P:problem=kreska pseudotaktowa	!
.	.	.	.	16dd\	4r	.
.	.	.	.	16b/	.	.
.	.	.	.	16cc\	.	.
!	!	!	!	!LO:TX:t=P:problem=kreska pseudotaktowa	!	!
.	.	.	.	16dd\	.	.
*	*	*	*	*	*	*custos:AA
!	!	!	!	!	!	!LO:LB:g=original
=82-	=82-	=82-	=82-	=82-	=82-	=82-
4C/	.	4C/	.	16ee\	16r	2r
.	.	.	.	16cc\	16ee\	.
.	.	.	.	16b/	16dd\	.
.	.	.	.	16a/	16cc\	.
*	*	*	*	*	*custos:b	*
!	!	!	!	!	!LO:LB:g=original	!
4E\	-	4E\	-	16g/	16b/	.
.	.	.	.	16e/	16g/	.
.	.	.	.	16fny/	16a/	.
.	.	.	.	16g/	16b/	.
!LO:TX:t=P:problem=kreska pseudotaktowa	!	!LO:TX:t=P:problem=kreska pseudotaktowa	!	!	!	!
2AA/	.	2AA/	.	8a/	4cc\	8r
.	.	.	.	8c/	.	8AA/
!	!	!	!	!	!LO:TX:t=P:problem=kreska pseudotaktowa	!
.	.	.	.	8c/	4r	8AA/
!	!	!	!	!LO:TX:t=P:problem=kreska pseudotaktowa	!	!
.	.	.	.	8c/	.	8AA/
=83-	=83-	=83-	=83-	=83-	=83-	=83-
4C/	.	4C/	.	16e/	16r	8C/
.	.	.	.	16ee\	16cc\	.
.	.	.	.	16dd\	16b/	8E\
.	.	.	.	16cc\	16a/	.
4E\	.	4E\	.	4b/	16g/	8E\
.	.	.	.	.	16e/	.
.	.	.	.	.	16g/	8E\
.	.	.	.	.	16a/	.
4G\	.	4G\	.	2r	16b/	16G\
.	.	.	.	.	16bb\	16G\
.	.	.	.	.	16aa\	16F\
.	.	.	.	.	16gg\	16E\
4D/	#	4D/	#	.	16ff#X\	16D/
.	.	.	.	.	16dd\	16BB/
.	.	.	.	.	16ee\	16C/
!	!	!	!	!	!LO:TX:a:t=P:problem=# above	!
!	!	!	!	!	!LO:TX:t=P:problem=kreska pseudotaktowa	!LO:TX:t=P:problem=kreska pseudotaktowa
.	.	.	.	.	16ff#X\	16D/
=84-	=84-	=84-	=84-	=84-	=84-	=84-
4E\	.	4E\	.	8r	4gg\	16E\
.	.	.	.	.	.	16E\
.	.	.	.	8g/	.	16D/
.	.	.	.	.	.	16C/
4BB/	.	4BB/	.	8g/	4r	16BB/
.	.	.	.	.	.	16D/
.	.	.	.	8g/	.	16E\
.	.	.	.	.	.	16F\
2GG/	.	2GG/	.	8b/	2r	4G\
.	.	.	.	8dd\	.	.
!	!	!	!	!	!	!LO:TX:t=P:problem=kreska pseudotaktowa
.	.	.	.	8dd\	.	4r
.	.	.	.	8dd\	.	.
*custos:D	*	*custos:D	*	*custos:ff	*	*
!LO:LB:g=original	!	!LO:LB:g=original	!	!LO:PB:g=original	!	!
=85-	=85-	=85-	=85-	=85-	=85-	=85-
2D/	.	2D/	.	16ff\	2r	8r
.	.	.	.	16dd\	.	.
.	.	.	.	16cc\	.	8D/
.	.	.	.	16b/	.	.
.	.	.	.	16a/	.	8D/
.	.	.	.	16d/	.	.
.	.	.	.	16f/	.	8D/
.	.	.	.	16g/	.	.
4F\	.	4F\	.	4a/	16r	8F\
.	.	.	.	.	16ffny\	.
.	.	.	.	.	16ee\	8A\
.	.	.	.	.	16dd\	.
!	!	!	!	!LO:TX:t=P:problem=kreska pseudotaktowa	!	!
4A\	.	4A\	.	4r	16cc\	8A\
.	.	.	.	.	16a/	.
!	!	!	!	!	!	!LO:TX:t=P:problem=kreska pseudotaktowa
.	.	.	.	.	16cc\	8A\
.	.	.	.	.	16dd\	.
=86-	=86-	=86-	=86-	=86-	=86-	=86-
2c\	.	2c\	.	8r	8ee\	4c\
.	.	.	.	8e/	8g/	.
.	.	.	.	8e/	8g/	16r
.	.	.	.	.	.	16c\
.	.	.	.	8e/	8g/	16B\
.	.	.	.	.	.	16A\
2G\	.	2G\	.	8g/	8b/	4G\
.	.	.	.	8b/	8dd\	.
.	.	.	.	8b/	8dd\	16r
.	.	.	.	.	.	16G\
!	!	!	!	!LO:TX:t=P:problem=kreska pseudotaktowa	!	!
.	.	.	.	8b/	8dd\	16F\
.	.	.	.	.	.	16E\
*	*	*	*	*	*	*custos:D
!	!	!	!	!	!	!LO:LB:g=original
=87-	=87-	=87-	=87-	=87-	=87-	=87-
4D/	.	4D/	.	4dd\	4ff\	16D/
.	.	.	.	.	.	16D/
.	.	.	.	.	.	16C/
.	.	.	.	.	.	16BB/
4A\	.	4A\	.	4r	4r	16AA/
.	.	.	.	.	.	16C/
.	.	.	.	.	.	16D/
.	.	.	.	.	.	16E\
!LO:TX:t=P:problem=kreska pseudotaktowa	!	!LO:TX:t=P:problem=kreska pseudotaktowa	!	!	!	!
2F\	.	2F\	.	8r	8r	4F\
.	.	.	.	8a/	8cc\	.
*	*	*	*	*	*custos:cc	*
!	!	!	!	!	!LO:LB:g=original	!
.	.	.	.	8a/	8cc\	16r
.	.	.	.	.	.	16F\
!	!	!	!	!LO:TX:t=P:problem=kreska pseudotaktowa	!LO:TX:t=P:problem=kreska pseudotaktowa	!
.	.	.	.	8a/	8cc\	16E\
!	!	!	!	!	!	!LO:TX:t=P:problem=kreska pseudotaktowa
.	.	.	.	.	.	16D/
=88-	=88-	=88-	=88-	=88-	=88-	=88-
2C/	.	2C/	.	8cc\	8ee\	4C/
.	.	.	.	8ee\	8gg\	.
.	.	.	.	8ee\	8gg\	16r
.	.	.	.	.	.	16C/
.	.	.	.	8ee\	8gg\	16BB/
.	.	.	.	.	.	16AA/
2GG/	.	2GG/	.	16gg\	4bb\	8GG/
.	.	.	.	16gg\	.	.
.	.	.	.	16ff\	.	8GG/
.	.	.	.	16ee\	.	.
!	!	!	!	!	!LO:TX:t=P:problem=kreska pseudotaktowa	!
.	.	.	.	16dd\	4r	8GG/
.	.	.	.	16g/	.	.
.	.	.	.	16b/	.	8GG/
!	!	!	!	!LO:TX:t=P:problem=kreska pseudotaktowa	!	!
.	.	.	.	16cc\	.	.
=89-	=89-	=89-	=89-	=89-	=89-	=89-
4BB/	.	4BB/	.	4dd\	16r	8BB/
.	.	.	.	.	16dd\	.
.	.	.	.	.	16cc\	8D/
.	.	.	.	.	16b/	.
4D/	.	4D/	.	4r	16a/	8D/
.	.	.	.	.	16d/	.
.	.	.	.	.	16f/	8D/
.	.	.	.	.	16g/	.
4F\	.	4F\	.	16r	16a/	4F\
.	.	.	.	16ff\	16aa\	.
.	.	.	.	16ee\	16gg\	.
.	.	.	.	16dd\	16ff\	.
*	*	*	*	*custos:cc	*	*
!	!	!	!	!LO:LB:g=original	!	!
!LO:TX:t=P:problem=kreska pseudotaktowa	!	!LO:TX:t=P:problem=kreska pseudotaktowa	!	!	!	!LO:TX:t=P:problem=kreska pseudotaktowa
4A\	.	4A\	.	16cc\	16ee\	4r
.	.	.	.	16a/	16cc\	.
.	.	.	.	16b/	16dd\	.
!	!	!	!	!LO:TX:t=P:problem=kreska pseudotaktowa	!LO:TX:t=P:problem=kreska pseudotaktowa	!
.	.	.	.	16cc\	16ee\	.
=90-	=90-	=90-	=90-	=90-	=90-	=90-
4D/	.	4D/	.	4dd\	16ff\	16r
.	.	.	.	.	16ff\	16D/
.	.	.	.	.	16ee\	16C/
.	.	.	.	.	16dd\	16BB/
4AA/	.	4AA/	.	4r	16cc\	16AA/
.	.	.	.	.	16a/	16FF/
.	.	.	.	.	16cc\	16AA/
.	.	.	.	.	16dd\	16BB/
4C/	.	4C/	.	16r	4ee\	16C/
.	.	.	.	16ee\	.	16c\
.	.	.	.	16dd\	.	16B\
.	.	.	.	16cc\	.	16A\
!	!	!	!	!	!LO:TX:t=P:problem=kreska pseudotaktowa	!
4G\	.	4G\	.	16b/	4r	16G\
.	.	.	.	16g/	.	16E\
.	.	.	.	16a/	.	16F\
!	!	!	!	!LO:TX:t=P:problem=kreska pseudotaktowa	!	!
.	.	.	.	16b/	.	16G\
*	*	*	*	*	*	*custos:A
!	!	!	!	!	!	!LO:PB:g=original
=91-	=91-	=91-	=91-	=91-	=91-	=91-
4A\	.	4A\	.	16cc\	2r	16A\
.	.	.	.	16cc\	.	16A\
.	.	.	.	16b/	.	16G\
.	.	.	.	16a/	.	16F\
4E\	.	4E\	.	16g/	.	16E\
.	.	.	.	16e/	.	16C/
.	.	.	.	16f/	.	16D/
.	.	.	.	16g/	.	16E\
!LO:TX:t=P:problem=kreska pseudotaktowa	!	!LO:TX:t=P:problem=kreska pseudotaktowa	!	!	!	!
2F\	.	2F\	.	16a/	8r	4F\
.	.	.	.	16ff\	.	.
.	.	.	.	16ee\	8a/	.
.	.	.	.	16dd\	.	.
.	.	.	.	16cc\	8a/	16r
.	.	.	.	16a/	.	16F\
.	.	.	.	16cc\	8a/	16E\
!	!	!	!	!LO:TX:t=P:problem=kreska pseudotaktowa	!	!LO:TX:t=P:problem=kreska pseudotaktowa
.	.	.	.	16dd\	.	16D/
=92-	=92-	=92-	=92-	=92-	=92-	=92-
2C/	.	2C/	.	4ee\	8cc\	4C/
.	.	.	.	.	8ee\	.
.	.	.	.	4r	8ee\	4r
.	.	.	.	.	8ee\	.
2GG/	.	2GG/	.	8r	4gg\	16r
.	.	.	.	.	.	16G\
.	.	.	.	8d/	.	16F\
.	.	.	.	.	.	16E\
!	!	!	!	!	!LO:TX:t=P:problem=kreska pseudotaktowa	!
.	.	.	.	8d/	4r	16D/
.	.	.	.	.	.	16GG/
!	!	!	!	!LO:TX:t=P:problem=kreska pseudotaktowa	!	!
.	.	.	.	8d/	.	16BB/
!	!	!	!	!	!	!LO:TX:t=P:problem=kreska pseudotaktowa
.	.	.	.	.	.	16C/
=93-	=93-	=93-	=93-	=93-	=93-	=93-
8D/	.	8D/	.	8f/	2r	8D/
8F\	.	8F\	.	8a/	.	8F\
4F\	.	4F\	.	8a/	.	8F\
.	.	.	.	8a/	.	8F\
*	*	*	*	*	*custos:aa	*
!	!	!	!	!	!LO:PB:g=original	!
!LO:TX:t=P:problem=kreska pseudotaktowa	!	!LO:TX:t=P:problem=kreska pseudotaktowa	!	!	!	!
2A\	.	2A\	.	4cc\	16r	8A\
.	.	.	.	.	16aa\	.
.	.	.	.	.	16gg\	8A\
.	.	.	.	.	16ff\	.
.	.	.	.	4r	16ee\	8A\
.	.	.	.	.	16a/	.
!	!	!	!	!	!	!LO:TX:t=P:problem=kreska pseudotaktowa
.	.	.	.	.	16cc\	8A\
!	!	!	!	!	!LO:TX:t=P:problem=kreska pseudotaktowa	!
.	.	.	.	.	16dd\	.
*	*	*	*	*custos:aa	*	*
!	!	!	!	!LO:LB:g=original	!	!
=94-	=94-	=94-	=94-	=94-	=94-	=94-
2AA/	.	2AA/	.	16r	4ee\	8c\
.	.	.	.	16aa\	.	.
.	.	.	.	16gg\	.	8AA/
.	.	.	.	16ff\	.	.
.	.	.	.	16ee\	4r	8AA/
.	.	.	.	16a/	.	.
.	.	.	.	16cc\	.	8AA/
.	.	.	.	16dd\	.	.
4C/	.	4C/	.	16ee\	8r	8C/
.	.	.	.	16cc\	.	.
.	.	.	.	16b/	8ee\	8E\
.	.	.	.	16a/	.	.
4E\	.	4E\	.	16g/	8ee\	8E\
.	.	.	.	16e/	.	.
!	!	!	!	!	!LO:TX:t=P:problem=kreska pseudotaktowa	!LO:TX:t=P:problem=kreska pseudotaktowa
.	.	.	.	16g/	8ee\	8E\
!	!	!	!	!LO:TX:t=P:problem=kreska pseudotaktowa	!	!
.	.	.	.	16a/	.	.
*	*	*	*	*	*	*custos:G
!	!	!	!	!	!	!LO:LB:g=original
=95-	=95-	=95-	=95-	=95-	=95-	=95-
4G\	.	4G\	.	4b/	8dd\	16G\
.	.	.	.	.	.	16G\
.	.	.	.	.	8dd\	16F\
.	.	.	.	.	.	16E\
4D/	.	4D/	.	4r	8ff\	16D/
.	.	.	.	.	.	16C/
.	.	.	.	.	8ff\	16D/
.	.	.	.	.	.	16E\
!	!	!	!	!LO:TX:t=P:problem=kreska pseudotaktowa	!	!
4F\	.	4F\	.	2r	16cc\	16F\
.	.	.	.	.	16aa\	16F\
.	.	.	.	.	16gg\	16E\
.	.	.	.	.	16ff\	16D/
!LO:TX:t=P:problem=kreska pseudotaktowa	!	!LO:TX:t=P:problem=kreska pseudotaktowa	!	!	!	!
4C/	.	4C/	.	.	16ee\	16C/
.	.	.	.	.	16cc\	16AA/
.	.	.	.	.	16dd\	16BB/
!	!	!	!	!	!LO:TX:t=P:problem=kreska pseudotaktowa	!LO:TX:t=P:problem=kreska pseudotaktowa
.	.	.	.	.	16ee\	16C/
=96-	=96-	=96-	=96-	=96-	=96-	=96-
8D/	.	8D/	.	2r	16ff\	8D/
.	.	.	.	.	16dd\	.
8FF/	.	8FF/	.	.	16cc\	8FF/
.	.	.	.	.	16b/	.
4FF/	.	4FF/	.	.	16a/	8FF/
.	.	.	.	.	16f/	.
.	.	.	.	.	16a/	8FF/
.	.	.	.	.	16b/	.
4AA/	.	4AA/	.	16r	4cc\	8AA/
.	.	.	.	16aa\	.	.
.	.	.	.	16gg\	.	8C/
.	.	.	.	16ff\	.	.
!	!	!	!	!	!LO:TX:t=P:problem=kreska pseudotaktowa	!
4C/	.	4C/	.	16ee\	4r	8C/
.	.	.	.	16cc\	.	.
.	.	.	.	16ee\	.	8C/
!	!	!	!	!LO:TX:t=P:problem=kreska pseudotaktowa	!	!
.	.	.	.	16ff#X\	.	.
=97-	=97-	=97-	=97-	=97-	=97-	=97-
1E	#	1E	#	16gg#X\	16r	1E
.	.	.	.	16cc\	16ee\	.
.	.	.	.	16b/	16dd\	.
.	.	.	.	16a/	16cc\	.
.	.	.	.	16g#X/	16b/	.
.	.	.	.	16b/	16e/	.
.	.	.	.	16e/	16g#X/	.
.	.	.	.	16f/	16a/	.
*	*	*	*	*	*custos:b	*
!	!	!	!	!	!LO:LB:g=original	!
.	.	.	.	8g#X/	8b/	.
.	4	.	4	4a/	8cc\	.
!	!	!	!	!	!LO:TX:t=P:problem=kreska pseudotaktowa	!
.	.	.	.	.	4b/	.
.	#	.	#	8g#X/	.	.
*custos:AA	*	*custos:AA	*	*custos:a	*	*
!LO:LB:g=original	!	!LO:LB:g=original	!	!LO:LB:g=original	!	!
=98-	=98-	=98-	=98-	=98-	=98-	=98-
!LO:TX:b:t=adagio.	!	!LO:TX:b:t=adagio.	!	!	!LO:TX:b:t=adagio.	!
[1AA	5	[1AA	5	2a/	4a/	1AA
.	.	.	.	.	4aa\	.
!	!	!	!	!LO:TX:b:t=adagio.	!	!
.	.	.	.	4r	4ee\	.
.	6	.	6	4aa\	4ff\	.
=99-	=99-	=99-	=99-	=99-	=99-	=99-
1AA]	5 #	1AA]	5 #	4.ee\	4.cc#X\	1r
.	6 4	.	6 4	8ffny\	8dd\	.
.	5 #	.	5 #	4.cc#X\	2ee\	.
.	6 4	.	6 4	8dd\	.	.
=100-	=100-	=100-	=100-	=100-	=100-	=100-
4AA/	#	4AA/	#	2ee\	1r	4r
4A\	.	4A\	.	.	.	4A\
!	!	!	!	!	!	!LO:TX:b:t=adagio.
4E\	.	4E\	.	2r	.	4E\
4F\	.	4F\	.	.	.	4F\
=101-	=101-	=101-	=101-	=101-	=101-	=101-
4.C#X/	.	4.C#X/	.	2r	4r	4.C#X/
.	.	.	.	.	4ee\	.
8D/	.	8D/	.	.	.	8D/
[<2E\	5	[<2E\	5	4r	4b/	1E\
!	!	!	!	!LO:TX:t=P:problem=kreska pseudotaktowa	!	!
.	6	.	6	4ee\	4ccny\	.
=102-	=102-	=102-	=102-	=102-	=102-	=102-
1E_<	#	1E_<	#	4b/	4.g#X/	.
.	.	.	.	4ccny\	.	.
.	.	.	.	.	8a/	.
!	!	!	!	!	!LO:TX:t=P:problem=kreska pseudotaktowa	!
.	.	.	.	4.g#X/	2b/	2E\
!	!	!	!	!LO:TX:t=P:problem=kreska pseudotaktowa	!	!
.	.	.	.	8a/	.	.
=103-	=103-	=103-	=103-	=103-	=103-	=103-
1E]	#	1E]	#	8b/	8r	1E
.	.	.	.	8cc\	8ee\	.
.	.	.	.	8g#X/	8b/	.
.	.	.	.	8a/	8cc\	.
.	.	.	.	2b/	8g#X/	.
.	4	.	4	.	4a/	.
.	#	.	#	.	8g#X/	.
=104-	=104-	=104-	=104-	=104-	=104-	=104-
0AA;	.	0AA;	.	0a;	0a;	0AA;
==	==	==	==	==	==	==
*-	*-	*-	*-	*-	*-	*-
!!!system-decoration: [ww][(str)]<klav>
!!!RDF**kern: > = above
!!!RDF**kern: < = below
!!!ENC: Andrzej Gręziak
!!!END: 2022-11-12
!!!ENC: Andrzej Kubiczek
!!!END: 2022-11-30
!!!YEC: Copyright 2022 Narodowy Instytut Fryderyka Chopina (https://polishscores.org)
!!!YEM: License CC-BY-4.0 (https://creativecommons.org/licenses/by/4.0)
